; generated by OrcaSlicer 2.2.0
; model name: lamp_shade_twisted
; total height: 118.6
;MAX_LAYER_Z:118.6
M109 S220
M190 S65
G28
G1 Z0.2 F600
G1 X60 Y60 F5000
; base layers
G1 X200 Y60 E12 F2400
G1 X200 Y200 E24
G1 X60 Y200 E36
G1 X60 Y60 E48
G1 Z0.4
; wall layers (many)
G1 Z50.0
G1 Z100.0
G1 Z118.0
G1 Z118.6
M104 S0
M140 S0
M84
