; generated by BambuStudio 1.9.5
; model name: voron_stealthburner_toolhead
; total height: 164.8
;MAX_LAYER_Z:164.8
M109 S240 ; ABS
M190 S100
G28
G1 Z0.2 F600
G1 X50 Y50 F6000
; raft
G1 X250 Y50 E20 F3000
G1 X250 Y250 E40
G1 X50 Y250 E60
G1 X50 Y50 E80
G1 Z0.4
; part starts
G1 Z80.0
G1 Z120.0
G1 Z160.0
G1 Z164.8
M104 S0
M140 S0
M84
